X: 21197
T: Katie's
R: waltz
M: 3/4
K: Bminor
(AB)|:"Bm"F2F2(AB)|"A"E4(FE)|"D"(DE)F2(dc)|"F#m"B2A2(AB)|
"Bm"F2F2(AB)|"A"E3(FED)|"G"B,2(D3E)|1 "F#m"F4(AB):|2 "D"D4A2||
"D"f2(f2g2)|a3(gfe)|"G"d2A2(de)|"D"f4e2|
"Bm"d2B2G2|"G"(FG)d2f2|"D"(f2g2a2)|"C"e4f2|
"Bm"(B3cd2)|"A"(A3cd2)|"G"(g2a3g)|"D"f4e2|
"Bm"(d2a2c2)|"A"(B2a3A)|"G"(G2f3c)|1 "D"d4A2:|2 "D"d4||

